styles/2/Numix/22/actions/blue-add-folders-to-archive.svg

<?xml version="1.0" encoding="UTF-8" standalone="no"?>
<svg
   xmlns:dc="http://purl.org/dc/elements/1.1/"
   xmlns:cc="http://creativecommons.org/ns#"
   xmlns:rdf="http://www.w3.org/1999/02/22-rdf-syntax-ns#"
   xmlns:svg="http://www.w3.org/2000/svg"
   xmlns="http://www.w3.org/2000/svg"
   xmlns:sodipodi="http://sodipodi.sourceforge.net/DTD/sodipodi-0.dtd"
   xmlns:inkscape="http://www.inkscape.org/namespaces/inkscape"
   width="22"
   height="22"
   viewBox="0 0 22 22"
   id="svg2"
   version="1.1"
   inkscape:version="0.91 r"
   sodipodi:docname="blue-add-folders-to-archive.svg">
  <metadata
     id="metadata20">
    <rdf:RDF>
      <cc:Work
         rdf:about="">
        <dc:format>image/svg+xml</dc:format>
        <dc:type
           rdf:resource="http://purl.org/dc/dcmitype/StillImage" />
      </cc:Work>
    </rdf:RDF>
  </metadata>
  <defs
     id="defs18" />
  <sodipodi:namedview
     pagecolor="#ffffff"
     bordercolor="#666666"
     borderopacity="1"
     objecttolerance="10"
     gridtolerance="10"
     guidetolerance="10"
     inkscape:pageopacity="0"
     inkscape:pageshadow="2"
     inkscape:window-width="1280"
     inkscape:window-height="969"
     id="namedview16"
     showgrid="true"
     inkscape:zoom="10.727273"
     inkscape:cx="12.9961"
     inkscape:cy="22.453299"
     inkscape:window-x="0"
     inkscape:window-y="0"
     inkscape:window-maximized="1"
     inkscape:current-layer="svg2">
    <inkscape:grid
       type="xygrid"
       id="grid2997" />
  </sodipodi:namedview>
  <path
     style="font-size:medium;font-style:normal;font-variant:normal;font-weight:normal;font-stretch:normal;text-indent:0;text-align:start;text-decoration:none;line-height:normal;letter-spacing:normal;word-spacing:normal;text-transform:none;direction:ltr;block-progression:tb;writing-mode:lr-tb;text-anchor:start;baseline-shift:baseline;color:#000000;fill:#42a5f5;fill-opacity:1;fill-rule:nonzero;stroke:none;stroke-width:1.03313816;marker:none;visibility:visible;display:inline;overflow:visible;enable-background:accumulate;font-family:Sans;-inkscape-font-specification:Sans"
     d="m 2.9999995,8 c -0.5473306,0 -1,0.4096882 -1,1 l 0,1 -1,0 c -0.5019272,0 -1,0.384749 -1,1 -1.52e-5,4.593749 0,5.40625 0,10 0,0.545771 0.4934173,1 1,1 l 16.0000015,0 c 0.515688,0 1,-0.437034 1,-1 l 0,-9 c 0,-0.577021 -0.426837,-1.065504 -1,-1 l -2,0 0,-2 c 0,-0.4874255 -0.401824,-1 -1,-1 z"
     id="path2995-7"
     inkscape:connector-curvature="0"
     sodipodi:nodetypes="ccccccssssscssc" />
  <path
     style="font-size:medium;font-style:normal;font-variant:normal;font-weight:normal;font-stretch:normal;text-indent:0;text-align:start;text-decoration:none;line-height:normal;letter-spacing:normal;word-spacing:normal;text-transform:none;direction:ltr;block-progression:tb;writing-mode:lr-tb;text-anchor:start;baseline-shift:baseline;color:#000000;fill:#000000;fill-opacity:0.10196078;fill-rule:nonzero;stroke:none;stroke-width:1.03313816;marker:none;visibility:visible;display:inline;overflow:visible;enable-background:accumulate;font-family:Sans;-inkscape-font-specification:Sans"
     d="M 3,8 C 2.735189,8 2.492447,8.115389 2.3125,8.28125 2.12052,8.458202 2,8.695295 2,9 l 0,1 -1,0 c -0.501927,0 -1,0.384749 -1,1 -1.5e-5,4.593749 0,5.40625 0,10 0,0.243589 0.10385,0.498397 0.28125,0.6875 0.03728,0.03916 0.08253,0.06065 0.125,0.09375 0.06076,0.04765 0.116052,0.09211 0.1875,0.125 C 0.718527,21.96467 0.864042,22 1,22 l 16,0 c 0.130303,0 0.256818,-0.0123 0.375,-0.0625 C 17.728769,21.788195 18,21.422224 18,21 l 0,-9 c 0,-0.143279 -0.0161,-0.285635 -0.0625,-0.40625 -0.0458,-0.117768 -0.137528,-0.223088 -0.21875,-0.3125 -0.09246,-0.101784 -0.184078,-0.1702 -0.3125,-0.21875 C 17.285633,11.0169 17.143291,10.98362 17,11 l -2,0 0,-2 C 15,8.86424 14.964154,8.721793 14.90625,8.59375 14.890388,8.55671 14.863784,8.53453 14.84375,8.5 14.805707,8.43527 14.770495,8.368333 14.71875,8.3125 14.633051,8.22286 14.519231,8.146805 14.40625,8.09375 14.277128,8.03311 14.150004,8 14,8 L 3,8 z"
     id="path3029"
     inkscape:connector-curvature="0" />
  <path
     style="font-size:medium;font-style:normal;font-variant:normal;font-weight:normal;font-stretch:normal;text-indent:0;text-align:start;text-decoration:none;line-height:normal;letter-spacing:normal;word-spacing:normal;text-transform:none;direction:ltr;block-progression:tb;writing-mode:lr-tb;text-anchor:start;baseline-shift:baseline;color:#000000;fill:#000000;fill-opacity:0.32156863;fill-rule:nonzero;stroke:none;stroke-width:1.03313816;marker:none;visibility:visible;display:inline;overflow:visible;enable-background:accumulate;font-family:Sans;-inkscape-font-specification:Sans"
     d="m 2.9999995,8 c -0.5444543,0 -0.9210227,0.4040805 -1,1 l 0,1 -1,0 c -0.5067594,0 -1,0.396468 -1,1 -2.59e-5,4.593749 0,5.40625 0,10 0,0.487177 0.4191986,1 1,1 l 16.0000015,0 c 0.521211,0 1,-0.442558 1,-1 l 0,-9 c 0,-0.573115 -0.393904,-1 -1,-1 l -2,0 0,-2 c 0,-0.5585119 -0.457433,-1 -1,-1 z M 10,11 l 0,1 7,0 0,9 -16.0000005,0 0,-10 z"
     id="path3786-7"
     inkscape:connector-curvature="0"
     sodipodi:nodetypes="ssccccssssscsssccccccc" />
  <path
     style="font-size:medium;font-style:normal;font-variant:normal;font-weight:normal;font-stretch:normal;text-indent:0;text-align:start;text-decoration:none;line-height:normal;letter-spacing:normal;word-spacing:normal;text-transform:none;direction:ltr;block-progression:tb;writing-mode:lr-tb;text-anchor:start;baseline-shift:baseline;color:#000000;fill:#42a5f5;fill-opacity:1;fill-rule:nonzero;stroke:none;stroke-width:1.03313816;marker:none;visibility:visible;display:inline;overflow:visible;enable-background:accumulate;font-family:Sans;-inkscape-font-specification:Sans"
     d="M 7,0 C 6.4526694,0 6,0.4096882 6,1 L 6,2 5,2 C 4.4980728,2 4,2.3847489 4,3 c -1.52e-5,4.5937493 0,5.40625 0,10 0,0.545771 0.4934173,1 1,1 l 16,0 c 0.515688,0 1,-0.437034 1,-1 L 22,4 C 22,3.4229791 21.573164,2.9344955 21,3 L 19,3 19,1 C 19,0.5125745 18.598176,0 18,0 z"
     id="path2995"
     inkscape:connector-curvature="0"
     sodipodi:nodetypes="ccccccssssscssc" />
  <path
     style="font-size:medium;font-style:normal;font-variant:normal;font-weight:normal;font-stretch:normal;text-indent:0;text-align:start;text-decoration:none;line-height:normal;letter-spacing:normal;word-spacing:normal;text-transform:none;direction:ltr;block-progression:tb;writing-mode:lr-tb;text-anchor:start;baseline-shift:baseline;color:#000000;fill:#000000;fill-opacity:0.32156863;fill-rule:nonzero;stroke:none;stroke-width:1.03313816;marker:none;visibility:visible;display:inline;overflow:visible;enable-background:accumulate;font-family:Sans;-inkscape-font-specification:Sans"
     d="M 7,0 C 6.4555457,0 6.0789773,0.40408055 6,1 L 6,2 5,2 C 4.4932406,2 4,2.3964676 4,3 c -2.59e-5,4.5937491 0,5.40625 0,10 0,0.487177 0.4191986,1 1,1 l 16,0 c 0.521212,0 1,-0.442558 1,-1 L 22,4 C 22,3.4268854 21.606096,3 21,3 L 19,3 19,1 C 19,0.4414881 18.542567,0 18,0 z m 7,3 0,1 7,0 0,9 L 5,13 5,3 z"
     id="path3786"
     inkscape:connector-curvature="0"
     sodipodi:nodetypes="ssccccssssscsssccccccc" />
  <path
     style="fill:#859900"
     d="m 22,14 -4,0 0,-4 -4,0 0,4 -4,0 0,4 4,0 0,4 4,0 0,-4 4,0 z"
     id="path14" />
</svg>

<svg xmlns="http://www.w3.org/2000/svg" viewBox="0 0 22 22">
 <path d="m 3 8 c -0.547 0 -1 0.41 -1 1 l 0 1 -1 0 c -0.502 0 -1 0.385 -1 1 0 4.594 0 5.406 0 10 0 0.546 0.493 1 1 1 l 16 0 c 0.516 0 1 -0.437 1 -1 l 0 -9 c 0 -0.577 -0.427 -1.066 -1 -1 l -2 0 0 -2 c 0 -0.487 -0.402 -1 -1 -1 z" style="visibility:visible;fill:#42a5f5;fill-opacity:1;stroke:none;display:inline;color:#000;fill-rule:nonzero"/>
 <path d="m 3 8 c -0.265 0 -0.508 0.115 -0.688 0.281 -0.192 0.177 -0.313 0.414 -0.313 0.719 l 0 1 -1 0 c -0.502 0 -1 0.385 -1 1 0 4.594 0 5.406 0 10 0 0.244 0.104 0.498 0.281 0.688 0.037 0.039 0.083 0.061 0.125 0.094 0.061 0.048 0.116 0.092 0.188 0.125 c 0.125 0.058 0.27 0.094 0.406 0.094 l 16 0 c 0.13 0 0.257 -0.012 0.375 -0.063 c 0.354 -0.149 0.625 -0.515 0.625 -0.938 l 0 -9 c 0 -0.143 -0.016 -0.286 -0.063 -0.406 -0.046 -0.118 -0.138 -0.223 -0.219 -0.313 -0.092 -0.102 -0.184 -0.17 -0.313 -0.219 c -0.121 -0.046 -0.263 -0.079 -0.406 -0.063 l -2 0 0 -2 c 0 -0.136 -0.036 -0.278 -0.094 -0.406 -0.016 -0.037 -0.042 -0.059 -0.063 -0.094 -0.038 -0.065 -0.073 -0.132 -0.125 -0.188 -0.086 -0.09 -0.2 -0.166 -0.313 -0.219 -0.129 -0.061 -0.256 -0.094 -0.406 -0.094 l -11 0 z" style="visibility:visible;fill:#000;fill-opacity:0.102;stroke:none;display:inline;color:#000;fill-rule:nonzero"/>
 <path d="m 3 8 c -0.544 0 -0.921 0.404 -1 1 l 0 1 -1 0 c -0.507 0 -1 0.396 -1 1 0 4.594 0 5.406 0 10 0 0.487 0.419 1 1 1 l 16 0 c 0.521 0 1 -0.443 1 -1 l 0 -9 c 0 -0.573 -0.394 -1 -1 -1 l -2 0 0 -2 c 0 -0.559 -0.457 -1 -1 -1 z m 7 3 l 0 1 7 0 0 9 -16 0 0 -10 z" style="visibility:visible;fill:#000;fill-opacity:0.322;stroke:none;display:inline;color:#000;fill-rule:nonzero"/>
 <path d="m 7 0 c -0.547 0 -1 0.41 -1 1 l 0 1 -1 0 c -0.502 0 -1 0.385 -1 1 c 0 4.594 0 5.406 0 10 0 0.546 0.493 1 1 1 l 16 0 c 0.516 0 1 -0.437 1 -1 l 0 -9 c 0 -0.577 -0.427 -1.066 -1 -1 l -2 0 0 -2 c 0 -0.487 -0.402 -1 -1 -1 z" style="visibility:visible;fill:#42a5f5;fill-opacity:1;stroke:none;display:inline;color:#000;fill-rule:nonzero"/>
 <path d="m 7 0 c -0.544 0 -0.921 0.404 -1 1 l 0 1 -1 0 c -0.507 0 -1 0.396 -1 1 c 0 4.594 0 5.406 0 10 0 0.487 0.419 1 1 1 l 16 0 c 0.521 0 1 -0.443 1 -1 l 0 -9 c 0 -0.573 -0.394 -1 -1 -1 l -2 0 0 -2 c 0 -0.559 -0.457 -1 -1 -1 z m 7 3 0 1 7 0 0 9 l -16 0 0 -10 z" style="visibility:visible;fill:#000;fill-opacity:0.322;stroke:none;display:inline;color:#000;fill-rule:nonzero"/>
 <path d="m 22 14 -4 0 0 -4 -4 0 0 4 -4 0 0 4 4 0 0 4 4 0 0 -4 4 0 z" style="fill:#859900"/>
</svg>
